X:1
T:Title
%%score ( 1 2 3 ) ( 4 5 )
L:1/8
Q:1/4=100
M:4/4
K:F
V:1 treble nm="Choir Aahs, Unnamed-000"
V:2 treble 
V:3 treble 
V:4 bass nm="Choir Aahs, Unnamed-001"
V:5 bass 
V:1
 [FA]2 [Fc]2 AG [DF]2 | z4 .F2 z2 | [DG]2 [DF]2 D2 [DB]2 | B-[DB] [^CA]6 | [DA]2 [Fd]2 cB [CA]2 | %5
w: By~William~Henry~Gladstone~(1840\-1891) * * * *|||||
 D2 [DB]2 AG [DF]2 | z8 | =B2 z2 z4 | z8 | G2 z2 z4 |] %10
w: |||||
V:2
 z4 E2 z2 | D2 [DA]2 ^C-[CE] D2 | x8 | .E2 z2 z4 | z4 E2 z2 | z4 ^C2 z2 | [DA]2 [CA]2 [=B,_A]2 c2 | %7
 z =B, [CA]2 [E=B]2 [Ec]2 | [Ec]2 F2 [DF]2 A2 | z B, [A,F]6 |] %10
V:3
 x8 | x8 | x8 | x8 | x8 | x8 | z4 z2 A,2- | A, z z2 z4 | z4 z2 C2- | C z z2 z4 |] %10
V:4
 F,2 [C,G,]2 CB, [D,A,]2 | [D,F,]2 [A,,F,]2 A,G, [B,,F,]2 | [B,,G,]2 [A,,A,]2 [A,,F,]2 [G,,G,]2 | %3
 G,F, [A,,E,]6 | [D,F,]2 [B,,B,]2 [C,G,]2 F,2 | [F,A,]2 [E,G,]2 [A,,A,]2 [D,A,]2 | %6
 [D,F,]2 E,2 E,D, [C,E,]2 | [D,F,]2 E,2 [E,_A,]2 =A,2 | [_A,B,]2 [F,=A,]2 [B,,F,]2 [C,F,]2 | %9
 [C,E,]2 [F,,F,]6 |] %10
V:5
 z4 C,2 z2 | z4 A,,2 z2 | x8 | G,,2 z2 z4 | x8 | x8 | x8 | x8 | x8 | x8 |] %10

